X:7251
T:The Rakes of Glasgow
O:england
M:4/4
L:1/8
Q:128
K:C
G|:c3/2d/c/G3/2E3/2C/E/G3/2A3/2c/G/E3/2g3/2e/d3/2e/c3/2d/e/c3/2A/c3/2G/c
3/2B3/2d/G/d3/2e/c3/2c|G
W: C F C C G C F C G C
c3/2d/c/G3/2E3/2C/E/G3/2A3/2c/G/E3/2g3/2e/d3/2e/c3/2d/e/c3/2A/c3/2G/c3/2
B3/2d/G/d3/2e/c3/2c|G:|
W: C F C C G C F C G C
|:A2G3/2F/E/C3/2E2g3/2e/f3/2d/B/c/d/B/G2A2G3/2F/E/C3/2E/c3/2B/c/d/B/G3/2
d/e/c3/2c|d:|
W: F G C C Dm G F G C G C
|:e2c3/2g/e/c3/2g3/2c/d2e2g/f/e/f/d2e2c3/2g/e/c3/2g3/2c/B/c/d/B/G3/2g/e/
c3/2c|z:|
W: C G C G C G C


